icons/dairy_fill.svg

<svg width="48" height="48" viewBox="0 0 48 48" fill="none" xmlns="http://www.w3.org/2000/svg">
<path fill-rule="evenodd" clip-rule="evenodd" d="M21.6752 6L18 21.6234V40.5217C18 41.4354 18.6793 42 19.3056 42L29.6944 42C30.3207 42 31 41.4354 31 40.5218V21.6234L27.3248 6.00004L21.6752 6ZM19.3056 7.33942C19.3056 7.33942 18.7752 7.38397 18.3154 7.10649C17.9634 6.89412 17.6528 6.49312 17.6528 5.73913C17.6528 4 18.4792 4 20.9583 4L28.0417 4.00004C30.5208 4.00004 31.3472 4.00004 31.3472 5.73917C31.3472 6.49316 31.0366 6.89416 30.6846 7.10653C30.2248 7.38401 29.6944 7.33946 29.6944 7.33946L33 21.3913V40.5218C33 42.4428 31.5201 44 29.6944 44L19.3056 44C17.4799 44 16 42.4427 16 40.5217V21.3913L19.3056 7.33942Z" fill="black"/>
<path d="M24 23.8138C21.6667 21.6275 17 23.8138 17 23.8138L20.5 6H28.5L31 16.5263L32 24.4211L31 26C31 26 26.3333 26 24 23.8138Z" fill="black"/>
<path d="M19 5H30L29 7H20L19 5Z" fill="black"/>
</svg>

<svg
  xmlns="http://www.w3.org/2000/svg"
  width="24"
  height="24"
  viewBox="0 0 24 24"
  fill="none"
  stroke="currentColor"
  stroke-width="2"
  stroke-linecap="round"
  stroke-linejoin="round"
>
  <path
    fill-rule="evenodd"
    d="M21.675 6 18 21.623v18.899c0 .913.68 1.478 1.306 1.478h10.388c.627 0 1.306-.565 1.306-1.478V21.623L27.325 6zm-2.37 1.34s-.53.044-.99-.234c-.352-.212-.662-.613-.662-1.367C17.653 4 18.479 4 20.958 4h7.084c2.479 0 3.305 0 3.305 1.74 0 .753-.31 1.154-.662 1.367-.46.277-.99.232-.99.232L33 21.391v19.13C33 42.444 31.52 44 29.694 44H19.306C17.48 44 16 42.443 16 40.522v-19.13z"
    clip-rule="evenodd"
  />
  <path d="M24 23.814c-2.333-2.186-7 0-7 0L20.5 6h8L31 16.526l1 7.895L31 26s-4.667 0-7-2.186" />
  <path d="M19 5h11l-1 2h-9z" />
</svg>
